packages/frontend/public/morph-l2.svg

<svg viewBox="0 0 32 32" fill="none" xmlns="http://www.w3.org/2000/svg" class="w-[32px] h-[32px] text-[#14A800]"><path fill-rule="evenodd" clip-rule="evenodd" d="M0 32H11.0193V15.4745C11.0193 14.9403 11.7875 14.8576 11.9012 15.3795L14.5011 27.3126H21.1127V23.2057C21.1127 22.9593 21.3124 22.7596 21.5588 22.7596H32V0H20.9807V4.1069C20.9807 4.35327 20.781 4.55299 20.5346 4.55299H9.54244L10.4458 8.69935C10.5064 8.97745 10.2946 9.2404 10.01 9.2404H0V32Z" fill="#14a800"></path></svg>

<svg viewBox="0 0 32 32" fill="none" xmlns="http://www.w3.org/2000/svg" class="w-[32px] h-[32px] text-[#14A800]"><path fill-rule="evenodd" clip-rule="evenodd" d="M0 32h11.02V15.475c0-.535.768-.617.881-.095l2.6 11.933h6.612v-4.107c0-.247.2-.446.446-.446H32V0H20.98v4.107a.446.446 0 0 1-.445.446H9.542l.904 4.146a.446.446 0 0 1-.436.541H0z" fill="#14a800"/></svg>
